packages/ui-icons/svg/Solid/archive.svg

<svg viewBox="0 0 1920 1920" xmlns="http://www.w3.org/2000/svg">
    <path d="M533.333 560v160H240l.008 453.33 209.066 213.34H1470.93l209.06-213.34L1680 720h-293.33V560h352c55.96 0 101.33 45.368 101.33 101.333v511.997h16c35.35 0 64 28.66 64 64V1856c0 35.35-28.65 64-64 64H64c-35.346 0-64-28.65-64-64v-618.67c0-35.34 28.654-64 64-64h16V661.333C80 605.368 125.369 560 181.333 560h352ZM1040 0v958.86l183.43-183.429 113.14 113.138L960 1265.14 583.431 888.569l113.138-113.138L880 958.86V0h160Z"/>
</svg>

<svg viewBox="0 0 1920 1920" version="1.1" xmlns="http://www.w3.org/2000/svg">
    <path d="M533.333,560 L533.333,720 L240,720 L240.008,1173.33 L240.008,1173.33 L449.074,1386.67 L1470.93,1386.67 L1679.99,1173.33 L1680,720 L1386.67,720 L1386.67,560 L1738.67,560 C1794.63,560 1840,605.368 1840,661.333 L1840,661.333 L1840,1173.33 L1856,1173.33 C1891.35,1173.33 1920,1201.99 1920,1237.33 L1920,1856 C1920,1891.35 1891.35,1920 1856,1920 L64,1920 C28.6538,1920 0,1891.35 0,1856 L0,1237.33 C0,1201.99 28.6538,1173.33 64,1173.33 L80,1173.33 L80,661.333 C80,605.368 125.369,560 181.333,560 L533.333,560 Z M1040,0 L1040,958.86 L1223.43,775.431 L1336.57,888.569 L960,1265.14 L583.431,888.569 L696.569,775.431 L880,958.86 L880,0 L1040,0 Z" fill-rule="nonzero" stroke="none" stroke-width="1"/>
</svg>
